X: 39416
T: Tar Road To Sligo, The
R: jig
M: 6/8
K: Bminor
f2B Bcd|ecA BAG|F2A ABc|dcd efg|
f2B Bcd|ecA BAG|FGA A2g|1 fdc d2e:|2 fdc d2B||
A2f A2f|gfg efg|afd dcd|Bed cBA|
A2f A2f|gfg efg|afd bge|edc dcB|
A2f A2f|gfg efg|afd dcd|Bed cBA|
fdA geg|~a3 bge|~a3 bge|edc d3||

